X: 24564
T: Lumsden's Rant
R: reel
M: 4/4
K: Amajor
|:A2c2 BAAA|Bcfc e4|A2c2 BAAA|ecBA BBBF|
A2c2 BAAA|Bcfc e4|eeaf ec2e|1 fecB AFEF:|2 fecB ABce||
|:aAAA feee|aAcf eeef|aAAA feee|ecBA BBBf|
aAAA feee|aAcf eeed|eeaf ec2e|1 fecB ABce:|2 fecB AFEF||

